X:1
T:What child is this
T:What child is this
T:Sats: John Stainer
T:"Greensleeves" - mel. fra 16. årh.
C:Arr: John Stainer
%%score [ 1 2 3 4 ]
L:1/8
Q:1/4=55
M:6/8
K:G
V:1 treble nm="Soprano"
V:2 treble nm="Alto"
V:3 treble-8 nm="Tenor"
V:4 bass nm="Bass"
V:1
"^Andante" E | G2 A (B>c) B | A2 F (D>E) F | G2 E (E>^D) E | F3 B,2 E | G2 A (B>c) B | %6
w: 1.What|child is this _ who,|laid to rest _ on|Ma- ry's lap _ is|sleep- ing, Whom|an- gels greet _ with|
w: 2.Why|lies he in _ such|mean es- tate _ where|ox and ass _ are|feed- ing. Good|Christ- ians fear, _ for|
w: 3.So|bring him in- * cense,|gold and myrrh, _ Come,|peas- ant, king _ to|own him. The|King of Kings _ sal-|
 A2 F (D>E) F | (G>F) E (^D>^C) D | E3 E3 | d3 (d>c) B | A2 F (D>E) F | G2 E (E>^D) E | F2 ^D B,3 | %13
w: an- thems sweet _ while|shep- * herds watch _ are|keep- ing.|This, this _ is|Christ the King, _ whom|shep- herds guard _ and|an- gels sing.|
w: sin- ners here _ the|si- * lent word _ is|plead- ing.|Nail, spear _ shall|pierce him through, _ the|cross be borne _ for|me, for you.|
w: va- tion brings, _ Let|lov- * ing hearts _ en-|throne him.|Raise, raise _ the|song on high. _ The|vir- gin sings _ her|lul- la- by.|
 !courtesy!=d3 (d>c) B | A2 F (D>E) F | (G>F) E (^D>^C) D | E3 E2 |] %17
w: Haste, haste _ to|bring him laud, _ the|babe, _ the son _ of|Ma- ry.|
w: Hail! Hail _ the|word made flesh, _ the|babe, _ the son _ of|Ma- ry.|
w: Joy! Joy! _ for|Christ is born, _ the|babe, _ the son _ of|Ma- ry.|
V:2
 B, | E2 D D2 G | F2 D D2 C | B,2 B, A,2 E | ^D3 B,2 B, | E2 !courtesy!=D D2 G | F2 D D2 C | %7
w: 1.What|child is this who,|laid to rest on|Ma- ry's lap is|sleep- ing, Whom|an- gels greet with|an- thems sweet while|
w: 2.Why|lies he in such|mean es- tate where|ox and ass are|feed- ing. Good|Christ- ians fear, for|sin- ners here the|
w: 3.So|bring him in- cense,|gold and myrrh, Come,|peas- ant, king to|own him. The|King of Kings sal-|va- tion brings, Let|
 B,2 C B,2 B, | B,3 B,3 | F3 (B>A) G | F2 D D2 C | B,2 B, A,2 E | ^D2 B, B,3 | F3 (B>A) G | %14
w: shep- herds watch are|keep- ing.|This, this _ is|Christ the King, whom|shep- herds guard and|an- gels sing.|Haste, haste _ to|
w: si- lent word is|plead- ing.|Nail, spear _ shall|pierce him through, the|cross be borne for|me, for you.|Hail! Hail _ the|
w: lov- ing hearts en-|throne him.|Raise, raise _ the|song on high. The|vir- gin sings her|lul- la- by.|Joy! Joy! _ for|
 F2 D D2 C | B,2 C B,2 B, | B,3 B,2 |] %17
w: bring him laud, the|babe, the son of|Ma- ry.|
w: word made flesh, the|babe, the son of|Ma- ry.|
w: Christ is born, the|babe, the son of|Ma- ry.|
V:3
 G | B2 A G2 B | d2 A F2 A | G2 G E2 E | B3 B2 G | B2 A G2 B | d2 A F2 A | G2 A F2 F | G3 G3 | %9
w: 1.What|child is this who,|laid to rest on|Ma- ry's lap is|sleep- ing, Whom|an- gels greet with|an- thems sweet while|shep- herds watch are|keep- ing.|
w: 2.Why|lies he in such|mean es- tate where|ox and ass are|feed- ing. Good|Christ- ians fear, for|sin- ners here the|si- lent word is|plead- ing.|
w: 3.So|bring him in- cense,|gold and myrrh, Come,|peas- ant, king to|own him. The|King of Kings sal-|va- tion brings, Let|lov- ing hearts en-|throne him.|
 B3 d2 d | d2 A F2 A | G2 G A2 E | B2 F B3 | B3 d2 d | d2 A F2 A | G2 A F2 F | G3 G2 |] %17
w: This, this is|Christ the King, whom|shep- herds guard and|an- gels sing.|Haste, haste to|bring him laud, the|babe, the son of|Ma- ry.|
w: Nail, spear shall|pierce him through, the|cross be borne for|me, for you.|Hail! Hail the|word made flesh, the|babe, the son of|Ma- ry.|
w: Raise, raise the|song on high. The|vir- gin sings her|lul- la- by.|Joy! Joy! for|Christ is born, the|babe, the son of|Ma- ry.|
V:4
 E, | E,2 F, G,2 G, | D,2 D, D,2 ^D, | E,2 E, C,2 C, | B,,3 B,2 E, | E,2 F, G,2 G, | %6
w: 1.What|child is this who,|laid to rest on|Ma- ry's lap is|sleep- ing, Whom|an- gels greet with|
w: 2.Why|lies he in such|mean es- tate where|ox and ass are|feed- ing. Good|Christ- ians fear, for|
w: 3.So|bring him in- cense,|gold and myrrh, Come,|peas- ant, king to|own him. The|King of Kings sal-|
 D,2 D, D,2 ^D, | E,2 A,, B,,2 B,, | E,3 E,3 | B,3 G,2 G, | D,2 D, D,2 ^D, | E,2 E, C,2 C, | %12
w: an- thems sweet while|shep- herds watch are|keep- ing.|This, this is|Christ the King, whom|shep- herds guard and|
w: sin- ners here the|si- lent word is|plead- ing.|Nail, spear shall|pierce him through, the|cross be borne for|
w: va- tion brings, Let|lov- ing hearts en-|throne him.|Raise, raise the|song on high. The|vir- gin sings her|
 B,,2 B,, B,,3 | B,3 G,2 G, | D,2 D, D,2 ^D, | E,2 A,, B,,2 B,, | E,3 E,2 |] %17
w: an- gels sing.|Haste, haste to|bring him laud, the|babe, the son of|Ma- ry.|
w: me, for you.|Hail! Hail the|word made flesh, the|babe, the son of|Ma- ry.|
w: lul- la- by.|Joy! Joy! for|Christ is born, the|babe, the son of|Ma- ry.|

